packages/calcite-ui-icons/icons/browser-plus-24.svg

<?xml version="1.0" encoding="UTF-8"?><svg id="icons" xmlns="http://www.w3.org/2000/svg" viewBox="0 0 24 24"><defs><style>.cls-1{fill:none;}</style></defs><rect class="cls-1" width="24" height="24"/><path d="M3.99994,19h3.00006v.99902h-3.00006v3.00098h-1v-3.00098l-2.99994.00098v-1h2.99994v-3h1v3ZM23,3v18h-14.00018c0-.00037.00018-.00061.00018-.00098v-.99902h13v-12H7v9h-1v-9H2v6h-1V3h22ZM22,4H2v3h20v-3ZM21,5h-1v1h1v-1Z"/></svg>

<svg xmlns="http://www.w3.org/2000/svg" viewBox="0 0 24 24"><path fill="none" d="M0 0h24v24H0z"/><path d="M4 19h3v.999H4V23H3v-3.001L0 20v-1h3v-3h1v3zM23 3v18H9v-1h13V8H7v9H6V8H2v6H1V3h22zm-1 1H2v3h20V4zm-1 1h-1v1h1V5z"/></svg>
